X: 28058
T: Mr Ballentine's
R: jig
M: 6/8
K: Emajor
B,EE FEG|EFE GEC|B,EE DEF|GAG FGB|
B,EE FEG|EFE GEe|ecB cec|BGF E3:|
|:Gcc cde|dBG BGE|CEE B,EB-|BAG FB/c/d|
eBG dBG|cAE BGE|CEE B,EG|FED E3:|

